packages/sources/icons/src/vitamix/whatsapp-fill.svg

<svg width="16" height="16" viewBox="0 0 16 16" fill="none" xmlns="http://www.w3.org/2000/svg">
<path fill-rule="evenodd" clip-rule="evenodd" d="M2.23732 11.3547L1.33599 14.6667L4.64666 13.7633C5.66443 14.3568 6.82184 14.6686 7.99999 14.6667C11.682 14.6667 14.6667 11.682 14.6667 8.00001C14.6667 4.31801 11.682 1.33334 7.99999 1.33334C4.31799 1.33334 1.33332 4.31801 1.33332 8.00001C1.33139 9.17867 1.64341 10.3366 2.23732 11.3547ZM5.34668 4.93868C5.42379 4.90003 5.50792 4.87736 5.59401 4.87201V4.87134C5.68343 4.86512 5.77315 4.86423 5.86268 4.86868C5.89868 4.87134 5.93468 4.87534 5.97068 4.87934C6.07668 4.89201 6.19334 4.95601 6.23268 5.04534C6.43134 5.49601 6.62468 5.95001 6.81134 6.40601C6.85268 6.50668 6.82801 6.63668 6.74934 6.76334C6.69526 6.84922 6.63674 6.93223 6.57401 7.01201C6.49868 7.10801 6.33668 7.28534 6.33668 7.28534C6.33668 7.28534 6.27068 7.36401 6.29601 7.46201C6.31292 7.51021 6.33576 7.55612 6.36401 7.59868L6.40334 7.66201C6.59249 7.97202 6.82106 8.25617 7.08334 8.50734C7.10489 8.52818 7.1263 8.5492 7.14772 8.57024C7.2058 8.62729 7.26397 8.68443 7.32534 8.73801C7.63749 9.01324 7.99062 9.23816 8.37201 9.40468L8.37534 9.40601C8.39175 9.41315 8.40581 9.41934 8.41951 9.42538C8.45314 9.44019 8.48461 9.45405 8.54334 9.47868C8.58469 9.49636 8.62724 9.51106 8.67068 9.52268C8.76247 9.5463 8.85943 9.51205 8.91601 9.43601C9.39801 8.85201 9.44268 8.81401 9.44601 8.81401V8.81534C9.51385 8.75207 9.60573 8.7212 9.69801 8.73068C9.73869 8.73248 9.77869 8.74174 9.81601 8.75801C10.17 8.91934 10.75 9.17201 10.75 9.17201L11.138 9.34601C11.2027 9.37734 11.262 9.45134 11.2647 9.52268C11.2648 9.52519 11.2649 9.52778 11.265 9.53047C11.2671 9.57562 11.2704 9.64676 11.2553 9.77134C11.234 9.94401 11.182 10.1513 11.13 10.26C11.0933 10.3367 11.0453 10.404 10.99 10.4613C10.9153 10.5393 10.86 10.5867 10.77 10.6533C10.7153 10.6947 10.6867 10.7133 10.6867 10.7133C10.594 10.772 10.542 10.8013 10.4313 10.86C10.2598 10.9514 10.0702 11.004 9.87601 11.014C9.85444 11.0151 9.83289 11.0162 9.81136 11.0173C9.7091 11.0228 9.60722 11.0282 9.50534 11.0227L9.12601 10.9647C8.17818 10.7154 7.3016 10.2483 6.56601 9.60068C6.44033 9.48952 6.32214 9.37135 6.20321 9.25243C6.18019 9.22941 6.15714 9.20637 6.13401 9.18334C5.54134 8.59334 5.09268 7.95668 4.82001 7.35534C4.68668 7.05801 4.60134 6.74001 4.60001 6.41334C4.59775 6.00896 4.73029 5.61534 4.97668 5.29468C4.98406 5.28507 4.99137 5.27541 4.99873 5.26568C5.0399 5.21129 5.08282 5.15458 5.15068 5.09068C5.20834 5.03083 5.27436 4.97963 5.34668 4.93868Z" fill="#001018"/>
</svg>

<svg width="16" height="16" fill="none" xmlns="http://www.w3.org/2000/svg"><path fill-rule="evenodd" clip-rule="evenodd" d="m2.237 11.355-.901 3.312 3.31-.904a6.667 6.667 0 1 0-2.41-2.409zm3.11-6.416a.64.64 0 0 1 .247-.067 2.015 2.015 0 0 1 .377.007c.106.013.222.077.262.166.198.451.392.905.578 1.361.042.1.017.23-.062.357a2.917 2.917 0 0 1-.175.249c-.075.096-.237.273-.237.273s-.066.079-.041.177c.017.048.04.094.068.137l.04.063a4.197 4.197 0 0 0 .744.908c.058.057.116.114.177.168.312.275.666.5 1.047.667l.003.001.045.02.123.053a.945.945 0 0 0 .128.044.233.233 0 0 0 .245-.087c.482-.584.527-.622.53-.622v.001a.321.321 0 0 1 .252-.084c.04.001.08.01.118.027.354.161.934.414.934.414l.388.174c.065.031.124.105.127.177v.007a1.856 1.856 0 0 1-.135.73.765.765 0 0 1-.14.201c-.075.078-.13.126-.22.192-.055.042-.083.06-.083.06a3.222 3.222 0 0 1-.256.147 1.326 1.326 0 0 1-.62.157c-.102.006-.204.011-.306.006l-.379-.058A6.299 6.299 0 0 1 6.566 9.6a8.208 8.208 0 0 1-.432-.418c-.593-.59-1.041-1.226-1.314-1.828a2.332 2.332 0 0 1-.22-.942 1.82 1.82 0 0 1 .399-1.147 1.17 1.17 0 0 1 .152-.175.862.862 0 0 1 .196-.152z" fill="#001018"/></svg>
